X: 478
T: Xiu hebao
L: 1/8
M: 2/4
K: G
A A A d [I:setbarnb 1]| 
A2G E | 
d c A A | 
D2C A, | 
A G A d | 
A G D E | 
E A D C | 
A,4 |]

@@@ Tune index: 9352
